!!!COM: Corelli, Arcangelo
!!!OTL: 
!!!ONM: Opus 3, No. 8
!!!OMV: 2
!!!CDT: 1653/2/17/-1713/1/8/
!!!OCY: Italia
**kern	**kern	**kern	**kern
*clefC	*clefC	*clefG	*clefG
*k[]	*k[]	*k[]	*k[]
*C:	*C:	*C:	*C:
*M4/4	*M4/4	*M4/4	*M4/4
=1	=1	=1	=1
1r	1r	1r	4.cc
.	.	.	8cc
.	.	.	8dd
.	.	.	8dd
.	.	.	8dd
.	.	.	16cc
.	.	.	16dd
=2	=2	=2	=2
1r	1r	1r	4.ee
.	.	.	8ee
.	.	.	8ff
.	.	.	16ee
.	.	.	16ff
.	.	.	8gg
.	.	.	8gg
=3	=3	=3	=3
1r	1r	2r	8cc
.	.	.	16gg
.	.	.	16ff
.	.	.	8ee
.	.	.	16dd
.	.	.	16cc
.	.	4.g	8dd
.	.	.	8g
.	.	.	[4gg
.	.	8g	.
=4	=4	=4	=4
1r	1r	8a	8gg]
.	.	8a	16aa
.	.	.	16gg
.	.	8a	8ff#
.	.	16g	16ee
.	.	16a	16ff#
.	.	4.b	8gg
.	.	.	16gg
.	.	.	16aa
.	.	.	8bb
.	.	8b	8dd
=5	=5	=5	=5
1r	1r	8cc	8ee
.	.	16b	16dd
.	.	16cc	16ee
.	.	8dd	8ff#
.	.	8dd	16ee
.	.	.	16ff#
.	.	8g	4.gg
.	.	8dd	.
.	.	[4gg	.
.	.	.	8g
=6	=6	=6	=6
2r	2r	4gg]	8a
.	.	.	16b
.	.	.	16cc
.	.	2ff	16dd
.	.	.	16cc
.	.	.	16b
.	.	.	16a
4.C	4.C	.	8g
.	.	.	16a
.	.	.	16b
.	.	[4ee	8cc
8C	8C	.	8gg
=7	=7	=7	=7
8D	8D	8ee]	4.ff
8D	8D	8a	.
8D	8D	4.dd	.
16C	16C	.	16gg
16D	16D	.	16ff
4.E	4.E	.	4.ee
.	.	8g	.
.	.	[4cc	.
8E	8E	.	8gg
=8	=8	=8	=8
8F	8F	4cc]	8aa
16E	16E	.	8cc
16F	16F	.	.
8G	8G	4b	4ff
8G	8G	.	.
4C	4C	8cc	4ee
.	.	16gg	.
.	.	16ff	.
4c	4c	8ee	4r
.	.	16dd	.
.	.	16cc	.
=9	=9	=9	=9
4.B	4.B	8dd	4.gg
.	.	16ee	.
.	.	16ff#	.
.	.	2gg	.
8B	8B	.	8gg
8A	8A	.	8aa
16B	16B	.	8aa
16c	16c	.	.
8d	8d	4ff#	8aa
8D	8D	.	16gg
.	.	.	16aa
=10	=10	=10	=10
4.G	4.G	8gg	4.bb
.	.	8dd	.
.	.	2gg	.
8G	8G	.	8bb
4A	4A	.	8ccc
.	.	.	16bb
.	.	.	16ccc
4B	4B	[4ff	8ddd
.	.	.	8ddd
=11	=11	=11	=11
4.c	4.c	4ff]	8gg
.	.	.	16aa
.	.	.	16bb
.	.	4ee	2ccc
8C	8C	.	.
4.G	4.G	2dd	.
.	.	.	[4bb
8G#	8G#	.	.
=12	=12	=12	=12
4.A	4.A	2cc	8bb]
.	.	.	8ee
.	.	.	2aa
8C	8C	.	.
8D	8D	2b	.
16C	16C	.	.
16D	16D	.	.
8E	8E	.	4gg#
8E	8E	.	.
=13	=13	=13	=13
4.AA	4.AA	8a	8aa
.	.	8ee	8ccc
.	.	4.ff	8aa
8A	8A	.	8ff
4B	4B	.	4.gg
.	.	8ee	.
4c	4c	[4ee	.
.	.	.	16aa
.	.	.	16gg
=14	=14	=14	=14
4A	4A	8ee]	8ff
.	.	8dd	8aa
4B	4B	4.dd	8ff
.	.	.	8dd
4.c	4.c	.	4.ee
.	.	8cc	.
.	.	[4cc	.
8A	8A	.	16ff
.	.	.	16ee
=15	=15	=15	=15
8F	8F	8cc]	8dd
8D	8D	8b	8ff
4.G	4.G	8b	8dd
.	.	8g	8b
.	.	8a	4.cc
8F	8F	8aa	.
[4F	[4F	8aa	.
.	.	8ff	16dd
.	.	.	16cc
=16	=16	=16	=16
8F]	8F]	8gg	8b
8E	8E	8cc	8gg
8E	8E	2ccc	8ee
16F	16F	.	8cc
16E	16E	.	.
8D	8D	.	4.ff
16E	16E	.	.
16F	16F	.	.
8G	8G	4bb	.
8GG	8GG	.	16ee
.	.	.	16dd
=17	=17	=17	=17
4.C	4.C	4ccc	8ee
.	.	.	8cc
.	.	8r	4.aa
8c	8c	8ee	.
8B	8B	8dd	.
8A	8A	8cc	16bb
.	.	.	16aa
8B	8B	8dd	[4gg
8e	8e	16cc	.
.	.	16b	.
=18	=18	=18	=18
4.A	4.A	4.cc	8gg]
.	.	.	8cc
.	.	.	4.ff
8d	8d	16dd	.
.	.	16cc	.
4G	4G	8b	.
.	.	8g	16gg
.	.	.	16ff
8r	8r	8r	8ee
8E	8E	8gg	8gg
=19	=19	=19	=19
8F	8F	4ff	8a
8G	8G	.	8b
8A	8A	4ee	2cc
8E	8E	.	.
8F	8F	2dd	.
8D	8D	.	.
8G	8G	.	4b
8GG	8GG	.	.
=20	=20	=20	=20
4.C	4.C	8cc	4cc
.	.	16g	.
.	.	16f	.
.	.	8e	2.r
8C	8C	8g	.
8D	8D	8f	.
8D	8D	8a	.
8D	8D	8d	.
16C	16C	8g	.
16D	16D	.	.
=21	=21	=21	=21
4.E	4.E	8c	8r
.	.	8cc	16gg
.	.	.	16ff
.	.	8g	8ee
8E	8E	8cc	8gg
8F	8F	8a	8aa
16E	16E	8cc	8gg
16F	16F	.	.
8G	8G	8.cc	4ff
8G	8G	.	.
.	.	16b	.
=22	=22	=22	=22
4C	4C	8cc	4ee
.	.	16gg	.
.	.	16ff	.
4r	4r	8ee	4.r
.	.	16dd	.
.	.	16cc	.
4.G	4.G	8dd	.
.	.	8g	16dd
.	.	.	16cc
.	.	[4gg	8b
8G	8G	.	8dd
=23	=23	=23	=23
8A	8A	4gg]	8cc
8A	8A	.	8ee
8A	8A	4ff#	8a
16G	16G	.	8dd
16A	16A	.	.
4.B	4.B	4.gg	8g
.	.	.	8gg
.	.	.	8dd
8B	8B	8dd	8gg
=24	=24	=24	=24
8c	8c	8ee	8ee
16B	16B	8dd	8gg
16c	16c	.	.
8d	8d	4cc	8.gg
8d	8d	.	.
.	.	.	16ff#
4.G	4.G	8b	4.gg
.	.	8dd	.
.	.	[4gg	.
8E	8E	.	8gg
=25	=25	=25	=25
4.F	8F	8gg]	8aa
.	8G	8cc	8aa
.	8A	4.ff	8aa
8F	8F	.	16gg
.	.	.	16aa
4G	4G	.	8bb
.	.	16gg	8gg
.	.	16ff	.
8r	8r	16ee	[4ccc
.	.	16gg	.
8c	8c	16ff	.
.	.	16ee	.
=26	=26	=26	=26
4F#	4F#	16dd	4ccc]
.	.	16cc	.
.	.	16dd	.
.	.	16ee	.
4G#	4G#	16dd	4.bb
.	.	16ff	.
.	.	16ee	.
.	.	16dd	.
4.A	4.A	16cc	.
.	.	16b	.
.	.	16cc	8ee
.	.	16dd	.
.	.	16cc	[4aa
.	.	16ee	.
8C	8C	16dd	.
.	.	16cc	.
=27	=27	=27	=27
8D	8D	8b	4aa]
16C	16C	8cc	.
16D	16D	.	.
8E	8E	8.b	4gg#
8E	8E	.	.
.	.	16b	.
4.AA	4.AA	8a	4.aa
.	.	8ee	.
.	.	[4ff	.
8A	8A	.	8aa
=28	=28	=28	=28
4B	4B	8ff]	16gg
.	.	.	16ff
.	.	16ee	16gg
.	.	16dd	16aa
4c	4c	4.ee	16gg
.	.	.	16aa
.	.	.	16gg
.	.	.	16aa
4A	4A	.	16ff
.	.	.	16ee
.	.	8a	16ff
.	.	.	16gg
4B	4B	[4dd	16ff
.	.	.	16aa
.	.	.	16gg
.	.	.	16ff
=29	=29	=29	=29
4c	4c	8dd]	16ee
.	.	.	16dd
.	.	8g	16ee
.	.	.	16ff
4C	4C	4.cc	16ee
.	.	.	16gg
.	.	.	16ff
.	.	.	16ee
2G	2G	.	8dd
.	.	16dd	8g
.	.	16cc	.
.	.	16b	[4gg
.	.	16dd	.
.	.	16cc	.
.	.	16b	.
=30	=30	=30	=30
2D	2D	8a	8gg]
.	.	8d	16aa
.	.	.	16gg
.	.	4.dd	16ff
.	.	.	16aa
.	.	.	16gg
.	.	.	16ff
2A	2A	.	8ee
.	.	16ee	8a
.	.	16dd	.
.	.	16cc	[4aa
.	.	16ee	.
.	.	16dd	.
.	.	16cc	.
=31	=31	=31	=31
2E	2E	8b	8aa]
.	.	8e	16bb
.	.	.	16aa
.	.	2ee	16gg
.	.	.	16bb
.	.	.	16aa
.	.	.	16gg
8B	8B	.	8ff#
8BB	8BB	.	8b
8BB	8BB	4dd#	[4bb
8BB	8BB	.	.
=32	=32	=32	=32
8C	8C	4.ee	8bb]
8C	8C	.	8ee
8C	8C	.	4.aa
16D	16D	16ff#	.
16C	16C	16ee	.
8BB	8BB	8dd#	.
8BB	8BB	8b	16bb
.	.	.	16aa
8C	8C	[4ee	8gg
8GG	8GG	.	16aa
.	.	.	16gg
=33	=33	=33	=33
8AA	8AA	4ee]	8ff#
16GG	16GG	.	8gg
16AA	16AA	.	.
8BB	8BB	4dd#	4ff#
8BB	8BB	.	.
4.E	4.E	4.ee	8ee
.	.	.	8b
.	.	.	[4cc
8E	8E	8g	.
=34	=34	=34	=34
8F	8F	8a	8cc]
8F	8F	8a	8cc
8F	8F	8a	4.dd
16E	16E	16g	.
16F	16F	16a	.
4.G	4.G	4.b	.
.	.	.	16cc
.	.	.	16dd
.	.	.	[4ee
8G	8G	8b	.
=35	=35	=35	=35
8A	8A	8cc	8ee]
8A	8A	8cc	8ee
8A	8A	8cc	4.ff
16G	16G	16b	.
16A	16A	16cc	.
8B	8B	8dd	.
8G	8G	8g	16gg
.	.	.	16ff
8c	8c	8r	8ee
8E	8E	8gg	8gg
=36	=36	=36	=36
4F	4F	8ff	8a
.	.	16gg	8b
.	.	16ff	.
4C	4C	8ee	4.cc
.	.	16ff	.
.	.	16ee	.
4.G	4.G	4.dd	.
.	.	.	16dd
.	.	.	16cc
.	.	.	[4b
8G#	8G#	16ee	.
.	.	16dd	.
=37	=37	=37	=37
8A	8A	8cc	8b]
8AA	8AA	8cc	8ee
8C	8C	8cc	4.a
8D	8D	8ff	.
4.E	4.E	4.b	.
.	.	.	16b
.	.	.	16a
.	.	.	[4g
8E	8E	8ee	.
=38	=38	=38	=38
4.F	4.F	8a	8g]
.	.	8a	8cc
.	.	8a	2f
8F	8F	16dd	.
.	.	16cc	.
2G	2G	8b	.
.	.	8g	.
.	.	[4cc	4e
=39	=39	=39	=39
2GG	2GG	4cc]	2d
.	.	4b	.
2C	2C	2cc	2c
==	==	==	==
*-	*-	*-	*-
!!!RWG: This file only contains pitch and duration data.
!!!RWG: Transposing instruments are not transposed.
!!!RWG: Durations of rests and tied notes may be interpreted.
!!!RWG: Key is interpreted using the Humdrum key tool.
!!!SCA: 
!!!YOR: Chrysander Edition
!!!AGN: chamber
!!!AFT: stage1
!!!ENC: F. Bennion
!!!END: 1997/04/15
!!!AST: baroque
!!!YEC: Copyright 1994, Center for Computer Assisted Research in the Humanities
!!!YEM: Rights to all derivative electronic formats reserved.
!!!YEM: Refer to licensing agreement for further details.
!!!YEN: United States of America
!!!EED: W.B. Hewlett
!!!KEY: 1815307213
!!!EMD: Converted from MuseData to Humdrum Aug 9, 1999, by Bret Aarden using muse2kern.
!!!VTS: 117345068
